X: 7622
T: Coinleach Ghlas An Fhomhair
R: waltz
M: 3/4
K: Dmajor
EG|(A2 A)2 GG/A/|c2 d2 ec/d/|
ed/c/ d2 e2|(A2 A)2 GE/G/|
(A2 A)2 GG/A/|c2 d2 ec/d/|
ed/c/ d2 e2|(A2 A)G A2||
e|(g2 g)2 ae/d/|c>e (g2 g)a/g/|
ed/c/ d>e (A2|A)2 G2 GE/G/|
(A2 A)2 GG/A/|c2 d2 ec/d/|
ed/c/ d2 e2|(A2 A)G A2||

